X:177
T: WENN DER FRUEHLING KOMMT UND VON DEN BERGEN SCHAUT
N: B0211
O: Europa, Mitteleuropa, Deutschland
R: Jahreszeiten - Lied, Fruehling
M: 3/4
L: 1/16
K: C
G,2C2 | B,3A,G,2A,2G,2F,2 | E,2F,2G,4
G,2C2 | B,3A,G,2A,2G,2F,2 | E,2F,2G,4
G,2G,2 | A,3F,F,2F,2A,2A,2 | B,3^G,G,2G,2
B,2B,2 | C3A,A,2B,2C2D2 | E8
E3E | E3DD2A,2B,2G,2 | C4z4

